!! 00000] TT[00
!! NN
!!!OTL: A dar gur
!!!ARE: Xinjiang, Yngjisha
!! Ethnic Group: Weiwer
!! IV, 452
!!!SCT: C0429
!!!YEM: Copyright 1995, estate of Helmut Schaffrath.
**kern
*ICvox
*Ivox
!! Mixed meters:  2/4; 3/4
*MZ
*k[]
*C:
{8.r
16c
8c
16c
16e
=1
8d
[4.d
=2
8.d]}
{16d
8g
16a
16b
=3
8cc
8b
8b
16g
16b
=4
8a}
{8f
8a
16f
16a
=5
8e
16c
16e
4d}
=6
{16c
8d
16d
16.e
32f
16e
16g
8f
16d
16d
=7
*M2/4
[2d
=8
2d_
=9
8d]
4.r}
=10
{8.r
16c
8c
8c
=11
8.d
32c
32e
[4d
=12
8.d]}
{16g
8g
16a
16b
=13
16cc
16dd
16cc
16ee
4dd
=14
4a}
{8a
16b
16cc
=15
8dd
16cc
16ee
4dd
=16
8cc
16b
16dd
8cc
16a
16a
=17
[2a
=18
2a]}
=19
{4r
8.r
16a
=20
[2cc
=21
2cc_
=22
8.cc]
16a}
{8a
8b
=23
8cc
8b
8.g
16b
=24
8.a}
{16f
8f
8f
=25
8a
16.f
32g
8e
16.c
32e
=26
4d}
{8c
16d
16d
=27
16.e
32f
16e
16g
8f
16d
16d
=28
[2d
=29
2d_
=30
8d]
4.r}
=31
{4r
8.r
16e
=32
[2f
=33
2f_
=34
8.f]
16g
8f
8e
=35
4e}
{8d
8e
=36
8f
16.e
32f
4e}
=37
{4c
8.d
16d
=38
16e
16f
16e
16g
8f
8d
=39
[2d
=40
2d_
=41
8d]
4.r}
=42
{4r
8.r
16e
=43
[2f
=44
2f_
=45
8.f]
16g
8f
[8e
=46
8.e]}
{16e
8d
8e
=47
8f
16.e
32f
4e}
=48
{4c
8.d
16d
=49
16.e
32f
16e
16g
8f
8d
=50
[2d
=51
2d_
=52
8d]
4.r}
==
!!!AGN: Aiqing gequ
!!!ONB: ESAC (Essen Associative Code) Database: CHINA
!!!AMT: irregular
!!!AIN: vox
!!!EED: Helmut Schaffrath
!!!EEV: 1.0
*-
!!!ONB: Tied note syntax fixed by Craig Sapp, 2004/05/03/
